images_elementary_svg/chart2/res/areasfull3d_52x60.svg

<svg height="52" viewBox="0 0 60 52" width="60" xmlns="http://www.w3.org/2000/svg" xmlns:xlink="http://www.w3.org/1999/xlink"><linearGradient id="a" gradientTransform="matrix(1.3832 0 0 1.4144 -11.892 21.511)" gradientUnits="userSpaceOnUse" x1="13.697" x2="13.3" y1="12.091" y2="29.436001"><stop offset="0" stop-color="#aff05f"/><stop offset="1" stop-color="#68b723"/></linearGradient><linearGradient id="b"><stop offset="0" stop-color="#fff"/><stop offset=".34972405" stop-color="#fff" stop-opacity=".23529"/><stop offset="1" stop-color="#fff" stop-opacity=".15686"/><stop offset="1" stop-color="#fff" stop-opacity=".39216"/></linearGradient><linearGradient id="c" gradientUnits="userSpaceOnUse" x1="13.608" x2="13.608" y1="2.5455" y2="21.532"><stop offset="0" stop-color="#f7b19e"/><stop offset="1" stop-color="#e2866d"/></linearGradient><linearGradient id="d" gradientUnits="userSpaceOnUse" x1="15.608" x2="15.608" y1="2.5455" y2="21.532"><stop offset="0" stop-color="#cd9ef7"/><stop offset="1" stop-color="#a56de2"/></linearGradient><linearGradient id="e" gradientUnits="userSpaceOnUse" x1="30" x2="30" xlink:href="#d" y1="27" y2="39.5"/><linearGradient id="f" gradientUnits="userSpaceOnUse" x1="47.5" x2="47.5" xlink:href="#d" y1="27" y2="37"/><linearGradient id="g" gradientUnits="userSpaceOnUse" x1="35" x2="36.028595" xlink:href="#c" y1="23.0145" y2="35.634556"/><linearGradient id="h" gradientUnits="userSpaceOnUse" x1="47.5" x2="47.5" xlink:href="#c" y1="29.5" y2="34.5"/><linearGradient id="i" gradientUnits="userSpaceOnUse" x1="47.5" x2="47.5" xlink:href="#a" y1="12" y2="28.657801"/><linearGradient id="j" gradientUnits="userSpaceOnUse" x1="32.5" x2="32.5" xlink:href="#a" y1="10.761374" y2="34.5"/><linearGradient id="k" gradientUnits="userSpaceOnUse" x1="36.166988" x2="45" xlink:href="#a" y1="10.718956" y2="32"/><linearGradient id="l" gradientUnits="userSpaceOnUse" x1="32.5" x2="32.5" xlink:href="#b" y1="32" y2="39.5"/><linearGradient id="m" gradientUnits="userSpaceOnUse" x1="30" x2="30" xlink:href="#b" y1="22" y2="30"/><linearGradient id="n" gradientUnits="userSpaceOnUse" x1="30" x2="30" xlink:href="#b" y1="12" y2="22.5"/><linearGradient id="o" gradientUnits="userSpaceOnUse" x1="42.5" x2="42.5" y1="49.5" y2="7"><stop offset="0" stop-color="#f6f6f6"/><stop offset=".35294119" stop-color="#fcfcfc"/><stop offset="1" stop-color="#fff" stop-opacity=".915441"/></linearGradient><path d="m3 3h57v49h-57z" fill="#010101" opacity=".02"/><path d="m3 3h56.5v48.5h-56.5z" fill="#010101" opacity=".05"/><path d="m3 3h56v48h-56z" fill="#010101" opacity=".2"/><path d="m.5.5h57v49h-57z" fill="url(#o)" stroke="#939393" stroke-linecap="round" stroke-linejoin="round" stroke-width=".999"/><path d="m45 43.5 5.5-5.5v-31.5h-38" fill="none" stroke="#939393" stroke-linecap="round" stroke-linejoin="round"/><path d="m12.5 6.5-6 6v31l6-6.5" fill="none" stroke="#939393" stroke-linecap="round" stroke-linejoin="round"/><path d="m12.5 7v30" fill="none" stroke="#939393"/><g stroke-linecap="round" stroke-linejoin="round"><path d="m6.5 43.5h38.5" fill="none" stroke="#939393"/><path d="m45.5 41.5v-5.5l-16.5-4.5-20.5 5v5z" fill="url(#e)" stroke="#7239b3" stroke-opacity=".746324"/><path d="m45.5 41.5v-5.5l3-3v5z" fill="url(#f)" stroke="#7239b3" stroke-opacity=".745098"/><path d="m45.5 36v-7.5l3-3v7.5z" fill="url(#h)" stroke="#b35039" stroke-opacity=".745098"/><path d="m45.5 28.5c-.5-.186441-14.5-6-14.5-6l-22.5 4.5v9.5l20.5-5 16.5 4.5z" fill="url(#g)" stroke="#b35039" stroke-opacity=".745098"/><path d="m45.5 28.5-14.5-6-22.5 4.5v-14.5h37z" fill="url(#j)" stroke="#7bb339" stroke-opacity=".745098"/><path d="m45.5 28.5v-16l3-2.5v15.5z" fill="url(#i)" stroke="#7bb339" stroke-opacity=".745098"/><path d="m45.5 12.5h-37l3.5-2.5h36.5z" fill="url(#k)" stroke="#7bb339" stroke-opacity=".745098"/><path d="m28.984375 32.496094-19.5195312 4.761718v3.277344h35.0703122v-3.798828z" fill="none" stroke="url(#l)" stroke-opacity=".746324"/><path d="m30.90625 23.460938-21.4824219 4.296874v7.564454l19.3574219-4.720704a.92410923.92410923 0 0 1 .460938.0078l15.333984 4.181641v-5.671875c-.416396-.168134-.85457-.346802-1.90625-.78125-1.383476-.571514-3.17951-1.316267-4.960938-2.054688-3.431869-1.422547-6.559308-2.721185-6.802734-2.822265z" fill="none" stroke="url(#m)" stroke-opacity=".745098"/><path d="m9.5 13.5.035156 12.238281 21.2617188-4.251953.599609.05859 7.0625 2.929687 4.958985 2.052735 1.046875.429687.0351562-13.457027z" fill="none" stroke="url(#n)" stroke-opacity=".745098"/><path d="m1.5 1.5h55v47h-55z" fill="none" stroke="#fff" stroke-width=".999"/></g></svg>

<?xml version="1.0" encoding="UTF-8" standalone="no"?>
<svg
   xmlns:dc="http://purl.org/dc/elements/1.1/"
   xmlns:cc="http://creativecommons.org/ns#"
   xmlns:rdf="http://www.w3.org/1999/02/22-rdf-syntax-ns#"
   xmlns:svg="http://www.w3.org/2000/svg"
   xmlns="http://www.w3.org/2000/svg"
   xmlns:xlink="http://www.w3.org/1999/xlink"
   xmlns:sodipodi="http://sodipodi.sourceforge.net/DTD/sodipodi-0.dtd"
   xmlns:inkscape="http://www.inkscape.org/namespaces/inkscape"
   height="52"
   viewBox="0 0 60 52"
   width="60"
   version="1.1"
   id="svg71"
   sodipodi:docname="areasfull3d_52x60.svg"
   inkscape:version="0.92.3 (unknown)"
   inkscape:export-filename="/home/rizmut/Dokumen/Rizmut/Github/libreoffice-style-elementary/images_elementary/chart2/res/areasfull3d_52x60.png"
   inkscape:export-xdpi="96"
   inkscape:export-ydpi="96">
  <metadata
     id="metadata77">
    <rdf:RDF>
      <cc:Work
         rdf:about="">
        <dc:format>image/svg+xml</dc:format>
        <dc:type
           rdf:resource="http://purl.org/dc/dcmitype/StillImage" />
        <dc:title></dc:title>
      </cc:Work>
    </rdf:RDF>
  </metadata>
  <defs
     id="defs75">
    <linearGradient
       inkscape:collect="always"
       id="linearGradient1205">
      <stop
         style="stop-color:#f6f6f6;stop-opacity:1;"
         offset="0"
         id="stop1201" />
      <stop
         id="stop2419"
         offset="0.35294119"
         style="stop-color:#fcfcfc;stop-opacity:1" />
      <stop
         style="stop-color:#ffffff;stop-opacity:0.91544116"
         offset="1"
         id="stop1203" />
    </linearGradient>
    <linearGradient
       id="h"
       gradientTransform="matrix(1.3832,0,0,1.4144,-11.892,21.511)"
       gradientUnits="userSpaceOnUse"
       x1="13.697"
       x2="13.3"
       y1="12.091"
       y2="29.436001">
      <stop
         offset="0"
         stop-color="#aff05f"
         id="stop31" />
      <stop
         offset="1"
         stop-color="#68b723"
         id="stop33" />
    </linearGradient>
    <linearGradient
       id="i"
       gradientUnits="userSpaceOnUse"
       x1="12.00126"
       x2="12.00126"
       xlink:href="#a-2"
       y1="8.1875687"
       y2="19.999826" />
    <linearGradient
       id="a-2">
      <stop
         offset="0"
         stop-color="#fff"
         id="stop2-9" />
      <stop
         offset="0.34972405"
         stop-color="#fff"
         stop-opacity=".23529"
         id="stop4-1" />
      <stop
         offset="1"
         stop-color="#fff"
         stop-opacity=".15686"
         id="stop6" />
      <stop
         offset="1"
         stop-color="#fff"
         stop-opacity=".39216"
         id="stop8" />
    </linearGradient>
    <linearGradient
       id="f-2"
       gradientUnits="userSpaceOnUse"
       x1="13.608"
       x2="13.608"
       y1="2.5455"
       y2="21.532">
      <stop
         offset="0"
         stop-color="#f7b19e"
         id="stop25" />
      <stop
         offset="1"
         stop-color="#e2866d"
         id="stop27" />
    </linearGradient>
    <linearGradient
       id="g-7"
       gradientUnits="userSpaceOnUse"
       x1="11.876287"
       x2="12.00126"
       xlink:href="#a-2"
       y1="7.3122978"
       y2="19.999826" />
    <linearGradient
       id="j"
       gradientUnits="userSpaceOnUse"
       x1="15.608"
       x2="15.608"
       y1="2.5455"
       y2="21.532">
      <stop
         offset="0"
         stop-color="#cd9ef7"
         id="stop37" />
      <stop
         offset="1"
         stop-color="#a56de2"
         id="stop39" />
    </linearGradient>
    <linearGradient
       id="k"
       gradientUnits="userSpaceOnUse"
       x1="14.00124"
       x2="14.00124"
       xlink:href="#a-2"
       y1="4.0000048"
       y2="19.999826" />
    <linearGradient
       inkscape:collect="always"
       xlink:href="#j"
       id="linearGradient1115"
       x1="30"
       y1="27"
       x2="30"
       y2="39.5"
       gradientUnits="userSpaceOnUse" />
    <linearGradient
       inkscape:collect="always"
       xlink:href="#j"
       id="linearGradient1123"
       x1="47.5"
       y1="27"
       x2="47.5"
       y2="37"
       gradientUnits="userSpaceOnUse" />
    <linearGradient
       inkscape:collect="always"
       xlink:href="#f-2"
       id="linearGradient1131"
       x1="35"
       y1="23.0145"
       x2="36.028595"
       y2="35.634556"
       gradientUnits="userSpaceOnUse" />
    <linearGradient
       inkscape:collect="always"
       xlink:href="#f-2"
       id="linearGradient1139"
       x1="47.5"
       y1="29.5"
       x2="47.5"
       y2="34.5"
       gradientUnits="userSpaceOnUse" />
    <linearGradient
       inkscape:collect="always"
       xlink:href="#h"
       id="linearGradient1147"
       x1="47.5"
       y1="12"
       x2="47.5"
       y2="28.657801"
       gradientUnits="userSpaceOnUse" />
    <linearGradient
       inkscape:collect="always"
       xlink:href="#h"
       id="linearGradient1149"
       x1="32.5"
       y1="10.761374"
       x2="32.5"
       y2="34.5"
       gradientUnits="userSpaceOnUse" />
    <linearGradient
       inkscape:collect="always"
       xlink:href="#h"
       id="linearGradient1159"
       x1="36.166988"
       y1="10.718956"
       x2="45"
       y2="32"
       gradientUnits="userSpaceOnUse" />
    <linearGradient
       inkscape:collect="always"
       xlink:href="#a-2"
       id="linearGradient1169"
       x1="32.5"
       y1="32"
       x2="32.5"
       y2="39.5"
       gradientUnits="userSpaceOnUse" />
    <linearGradient
       inkscape:collect="always"
       xlink:href="#a-2"
       id="linearGradient1181"
       x1="30"
       y1="22"
       x2="30"
       y2="30"
       gradientUnits="userSpaceOnUse" />
    <linearGradient
       inkscape:collect="always"
       xlink:href="#a-2"
       id="linearGradient1193"
       x1="30"
       y1="12"
       x2="30"
       y2="22.5"
       gradientUnits="userSpaceOnUse" />
    <linearGradient
       inkscape:collect="always"
       xlink:href="#linearGradient1205"
       id="linearGradient1207"
       x1="42.5"
       y1="49.5"
       x2="42.5"
       y2="7"
       gradientUnits="userSpaceOnUse" />
    <linearGradient
       id="a-3"
       gradientUnits="userSpaceOnUse"
       x1="9.9784946"
       x2="9.9784946"
       y1="13.912886"
       y2="-5.8720589"
       gradientTransform="translate(-85.554475,-30.546764)">
      <stop
         offset="0"
         id="stop1717" />
      <stop
         offset="1"
         stop-color="#333"
         id="stop1719" />
    </linearGradient>
    <linearGradient
       id="b-6"
       gradientUnits="userSpaceOnUse"
       x1="14"
       x2="6"
       y1="8"
       y2="16">
      <stop
         offset="0"
         stop-color="#fff"
         id="stop1722" />
      <stop
         offset=".125"
         stop-color="#fff"
         stop-opacity="0"
         id="stop1724" />
      <stop
         offset="1"
         stop-color="#fff"
         stop-opacity="0"
         id="stop1726" />
    </linearGradient>
    <clipPath
       id="c-0">
      <path
         inkscape:connector-curvature="0"
         d="M 8,2.6855469 V 16.685547 l 3.132812,-3.820313 2.066407,4.986328 a 1.0001,1.0001 0 1 0 1.847656,-0.765624 L 12.935547,11.990234 17.314453,12 Z"
         id="path1729" />
    </clipPath>
  </defs>
  <sodipodi:namedview
     pagecolor="#ffffff"
     bordercolor="#666666"
     borderopacity="1"
     objecttolerance="10"
     gridtolerance="10"
     guidetolerance="10"
     inkscape:pageopacity="0"
     inkscape:pageshadow="2"
     inkscape:window-width="1364"
     inkscape:window-height="704"
     id="namedview73"
     showgrid="true"
     inkscape:zoom="4.5384616"
     inkscape:cx="56.237086"
     inkscape:cy="13.195583"
     inkscape:window-x="0"
     inkscape:window-y="0"
     inkscape:window-maximized="0"
     inkscape:current-layer="svg71"
     inkscape:snap-global="true">
    <inkscape:grid
       type="xygrid"
       id="grid895"
       spacingx="0.5"
       spacingy="0.5" />
  </sodipodi:namedview>
  <linearGradient
     id="a"
     gradientUnits="userSpaceOnUse"
     x1="29.525455894189"
     x2="29.525455894189"
     y1="35.604006871864"
     y2="16.823929761292"
     gradientTransform="translate(-60)">
    <stop
       offset="0"
       stop-color="#fbaeff"
       id="stop2" />
    <stop
       offset="1"
       stop-color="#ffd7d7"
       id="stop4" />
  </linearGradient>
  <linearGradient
     id="b"
     gradientUnits="userSpaceOnUse"
     x1="30.27586192"
     x2="30.27586192"
     y1="43.34487536"
     y2="30.9310824"
     gradientTransform="translate(-60)">
    <stop
       offset="0"
       stop-color="#99c2fc"
       id="stop7" />
    <stop
       offset="1"
       stop-color="#dceafe"
       id="stop9" />
  </linearGradient>
  <linearGradient
     id="c"
     gradientUnits="userSpaceOnUse"
     x1="36.4827584"
     x2="46.56896518"
     xlink:href="#d"
     y1="23.1724618"
     y2="40.64228401192"
     gradientTransform="translate(-60)" />
  <linearGradient
     id="d">
    <stop
       offset="0"
       stop-color="#fff"
       id="stop13" />
    <stop
       offset="1"
       stop-color="#fff"
       stop-opacity="0"
       id="stop15" />
  </linearGradient>
  <linearGradient
     id="e"
     gradientUnits="userSpaceOnUse"
     x1="39.859630516151"
     x2="50.44827548"
     xlink:href="#d"
     y1="3.311739960536"
     y2="29.37935828"
     gradientTransform="translate(-60)" />
  <linearGradient
     id="f"
     gradientUnits="userSpaceOnUse"
     x1="16.31034484"
     x2="24.864886637699"
     y1="34.21645904307"
     y2="2.290471955096"
     gradientTransform="translate(-60)">
    <stop
       offset="0"
       stop-color="#b900c4"
       id="stop19" />
    <stop
       offset="1"
       stop-color="#ae4300"
       id="stop21" />
  </linearGradient>
  <linearGradient
     id="g"
     gradientUnits="userSpaceOnUse"
     x1="13.012931085"
     x2="58.283811165318"
     y1="24.72418592"
     y2="12.593890241207"
     gradientTransform="translate(-60)">
    <stop
       offset="0"
       stop-color="#0968ef"
       id="stop24" />
    <stop
       offset="1"
       stop-color="#aecffc"
       id="stop26" />
  </linearGradient>
  <rect
     y="3"
     x="3"
     height="49"
     width="57"
     id="rect2411"
     style="opacity:0.02;vector-effect:none;fill:#010101;fill-opacity:1;stroke:none;stroke-width:0.99900001;stroke-linecap:round;stroke-linejoin:round;stroke-miterlimit:4;stroke-dasharray:none;stroke-dashoffset:0;stroke-opacity:1" />
  <rect
     style="opacity:0.05;vector-effect:none;fill:#010101;fill-opacity:1;stroke:none;stroke-width:0.98952127;stroke-linecap:round;stroke-linejoin:round;stroke-miterlimit:4;stroke-dasharray:none;stroke-dashoffset:0;stroke-opacity:1"
     id="rect2417"
     width="56.5"
     height="48.5"
     x="3"
     y="3" />
  <rect
     style="opacity:0.2;vector-effect:none;fill:#010101;fill-opacity:1;stroke:none;stroke-width:0.98004192;stroke-linecap:round;stroke-linejoin:round;stroke-miterlimit:4;stroke-dasharray:none;stroke-dashoffset:0;stroke-opacity:1"
     id="rect2415"
     width="56"
     height="48"
     x="3"
     y="3" />
  <rect
     style="opacity:1;vector-effect:none;fill:url(#linearGradient1207);fill-opacity:1;stroke:#939393;stroke-width:0.99900001;stroke-linecap:round;stroke-linejoin:round;stroke-miterlimit:4;stroke-dasharray:none;stroke-dashoffset:0;stroke-opacity:1"
     id="rect1199"
     width="57"
     height="49"
     x="0.5"
     y="0.5" />
  <path
     inkscape:connector-curvature="0"
     id="path903"
     d="M 45,43.5 50.5,38 V 6.5 h -38"
     style="fill:none;stroke:#939393;stroke-width:1px;stroke-linecap:round;stroke-linejoin:round;stroke-opacity:1"
     sodipodi:nodetypes="cccc" />
  <path
     style="fill:none;stroke:#939393;stroke-width:1px;stroke-linecap:round;stroke-linejoin:round;stroke-opacity:1"
     d="m 12.5,6.5 -6,6 v 31 l 6,-6.5"
     id="path897"
     inkscape:connector-curvature="0" />
  <path
     style="fill:none;stroke:#939393;stroke-width:1px;stroke-linecap:butt;stroke-linejoin:miter;stroke-opacity:1"
     d="M 12.5,7 V 37"
     id="path899"
     inkscape:connector-curvature="0" />
  <path
     style="fill:none;stroke:#939393;stroke-width:1px;stroke-linecap:round;stroke-linejoin:round;stroke-opacity:1"
     d="M 6.5,43.5 H 45"
     id="path901"
     inkscape:connector-curvature="0" />
  <path
     style="fill:url(#linearGradient1115);stroke:#7239b3;stroke-width:1px;stroke-linecap:round;stroke-linejoin:round;stroke-opacity:0.74632353;fill-opacity:1"
     d="M 45.5,41.5 V 36 L 29,31.5 8.5,36.5 v 5 z"
     id="path1093"
     inkscape:connector-curvature="0"
     sodipodi:nodetypes="cccccc" />
  <path
     sodipodi:nodetypes="ccccc"
     inkscape:connector-curvature="0"
     id="path1095"
     d="M 45.5,41.5 V 36 l 3,-3 v 5 z"
     style="fill:url(#linearGradient1123);stroke:#7239b3;stroke-width:1px;stroke-linecap:round;stroke-linejoin:round;stroke-opacity:0.74509805;fill-opacity:1" />
  <path
     style="fill:url(#linearGradient1139);stroke:#b35039;stroke-width:1px;stroke-linecap:round;stroke-linejoin:round;stroke-opacity:0.74509805;fill-opacity:1"
     d="m 45.5,36 v -7.5 l 3,-3 V 33 Z"
     id="path1097"
     inkscape:connector-curvature="0"
     sodipodi:nodetypes="ccccc" />
  <path
     style="fill:url(#linearGradient1131);stroke:#b35039;stroke-width:1px;stroke-linecap:round;stroke-linejoin:round;stroke-opacity:0.74509805;fill-opacity:1"
     d="M 45.5,28.5 C 45,28.313559 31,22.5 31,22.5 L 8.5,27 v 9.5 L 29,31.5 45.5,36 Z"
     id="path1099"
     inkscape:connector-curvature="0"
     sodipodi:nodetypes="ccccccc" />
  <path
     sodipodi:nodetypes="cccccc"
     inkscape:connector-curvature="0"
     id="path1101"
     d="M 45.5,28.5 31,22.5 8.5,27 V 12.5 h 37 z"
     style="fill:url(#linearGradient1149);fill-opacity:1;stroke:#7bb339;stroke-width:1px;stroke-linecap:round;stroke-linejoin:round;stroke-opacity:0.74509804" />
  <path
     sodipodi:nodetypes="ccccc"
     inkscape:connector-curvature="0"
     id="path1103"
     d="m 45.5,28.5 v -16 l 3,-2.5 v 15.5 z"
     style="fill:url(#linearGradient1147);fill-opacity:1;stroke:#7bb339;stroke-width:1px;stroke-linecap:round;stroke-linejoin:round;stroke-opacity:0.74509804" />
  <path
     style="fill:url(#linearGradient1159);fill-opacity:1;stroke:#7bb339;stroke-width:1px;stroke-linecap:round;stroke-linejoin:round;stroke-opacity:0.74509804"
     d="M 45.5,12.5 H 8.5 L 12,10 h 36.5 z"
     id="path1105"
     inkscape:connector-curvature="0"
     sodipodi:nodetypes="ccccc" />
  <path
     sodipodi:type="inkscape:offset"
     inkscape:radius="-0.96476382"
     inkscape:original="M 29 31.5 L 8.5 36.5 L 8.5 41.5 L 45.5 41.5 L 45.5 36 L 29 31.5 z "
     style="fill:none;fill-opacity:1;stroke:url(#linearGradient1169);stroke-width:1px;stroke-linecap:round;stroke-linejoin:round;stroke-opacity:0.74632353"
     id="path1161"
     d="M 28.984375,32.496094 9.4648438,37.257812 v 3.277344 H 44.535156 v -3.798828 z" />
  <path
     sodipodi:type="inkscape:offset"
     inkscape:radius="-0.92401683"
     inkscape:original="M 31 22.5 L 8.5 27 L 8.5 36.5 L 29 31.5 L 45.5 36 L 45.5 28.5 C 45 28.313559 31 22.5 31 22.5 z "
     style="fill:none;fill-opacity:1;stroke:url(#linearGradient1181);stroke-width:1px;stroke-linecap:round;stroke-linejoin:round;stroke-opacity:0.74509804"
     id="path1173"
     d="M 30.90625,23.460938 9.4238281,27.757812 v 7.564454 L 28.78125,30.601562 a 0.92410923,0.92410923 0 0 1 0.460938,0.0078 l 15.333984,4.181641 v -5.671875 c -0.416396,-0.168134 -0.85457,-0.346802 -1.90625,-0.78125 -1.383476,-0.571514 -3.17951,-1.316267 -4.960938,-2.054688 -3.431869,-1.422547 -6.559308,-2.721185 -6.802734,-2.822265 z" />
  <path
     style="fill:none;fill-opacity:1;stroke:url(#linearGradient1193);stroke-width:1px;stroke-linecap:round;stroke-linejoin:round;stroke-opacity:0.74509804"
     d="m 9.5,13.5 0.035156,12.238281 21.2617188,-4.251953 0.599609,0.05859 7.0625,2.929687 4.958985,2.052735 1.046875,0.429687 L 44.5,13.5 Z"
     id="path1185"
     inkscape:connector-curvature="0"
     sodipodi:nodetypes="ccccccccc" />
  <rect
     y="1.5"
     x="1.5"
     height="47"
     width="55"
     id="rect1209"
     style="opacity:1;vector-effect:none;fill:none;fill-opacity:1;stroke:#ffffff;stroke-width:0.99900001;stroke-linecap:round;stroke-linejoin:round;stroke-miterlimit:4;stroke-dasharray:none;stroke-dashoffset:0;stroke-opacity:1" />
</svg>
